!!!!SEGMENT: pl-wtm--r-2309--003_troschel-wilhelm--msza-credo.krn
!!!cenid: 18xx:2270
!!!COM: Troschel, Wilhelm
!!!COM-rismid: pe30024099
!!!CDT: 1823/08/23-1887/03/02
!!!CNT: Polish
!!!OTL: Msza – Credo
!!!PDT: 1853
!!!AGN: Sacred; Mass
!!!SMS-siglum: PL-Wtm
!!!SMS-shelfmark: R 2309
!!!SMS-shelfwork: 001-003 M
!!!SMS-variant:
!!!SMS-altvar:
!!!NIFC-rismid: 1001114147
!!!URL-scan: http://repozytorium.nifc.pl/skany/pl-wtm-nut--r2309
!!!ONB-nifc: UWAGA: części Mszy: 1. Kyrie, 2. Gloria, 3. Credo, 4. Benedictus, 5. Agnus Dei
!!!OMD: Andante
**kern	**kern	**dynam
*part1	*part1	*part1
*staff2	*staff1	*
*I"[fp.]	*I"[fp.]	*
*clefF4	*clefG2	*
*k[b-]	*k[b-]	*
*M2/4	*M2/4	*
!!LO:TX:t=P:problem:all\right or left:global
=1	=1	=1
*^	*^	*
!	!	!	!	!LO:DY:rj
4F\ 4c	4ryy	4a/	4f\	p
8Bn/	8F\	8g#X/	8f\	.
8c/	8F\	8a/	8f\	.
=2	=2	=2	=2	=2
4d/	4F\	4b-/	4f\	.
4c/	4F\	4a/	4f\	.
=3	=3	=3	=3	=3
4F\ 4A	4ryy	4cc/	4f\	.
8G#X/	8F\	8bn/	8f\	.
8A/	8F\	8cc/	8f\	.
=4	=4	=4	=4	=4
4B-/	4F\	4dd/	4f\	.
4A/	4F\	4cc/	4f\	.
=5	=5	=5	=5	=5
4d/	4F\	4b-/	4f\	.
4e/	4F\	4cc/	4g\	.
=6	=6	=6	=6	=6
4f/	4F\	4cc/	4a\	.
8F\ 8c	8ryy	8b-/	8f\	.
8F\ 8c	8ryy	8a/	8f\	.
=7	=7	=7	=7	=7
*	*2\right	*	*2\right	*
4Bn/	2G\	4g/	2f\	.
8c/	.	8a/	.	.
8d/	.	8bn/	.	.
*v	*v	*	*	*
=8	=8	=8	=8
2C\ 2c	4cc/	2e\	.
.	4b-X/	.	.
=9	=9	=9	=9
*^	*	*	*
4c/	2F\	4a/	2f\	.
8Bn/L	.	8g#X/L	.	.
8c/J	.	8a/J	.	.
!!LO:LB:g=original
=10	=10	=10	=10	=10
4d/	4F\	4b-/	4f\	.
4c/	4F\	4a/	4f\	.
=11	=11	=11	=11	=11
4A/	4F\	4cc/	4f\	.
8G#X/	8F\	8bn/	8f\	.
8A/	8F\	8cc/	8f\	.
=12	=12	=12	=12	=12
4B-/	4F\	4dd/	4f\	.
4A/	4F\	4cc/	4f\	.
=13	=13	=13	=13	=13
4A/	4D\	4dd/	4f#X\	.
4d/	4D\	4cc/	4f#\	.
=14	=14	=14	=14	=14
4e-X/	4G\	4cc/	4f#X\	.
8d/	8G\	8b-/	8g\	.
8d/	8G\	8a/	8fn\	.
=15	=15	=15	=15	=15
8d/	8B-\	8g/	8f\	.
8d-X/	8B-\	8g/	8f\	.
8c/	8c\	8g/	8e\	.
8c/	8C\	16a/LL	8e\	.
.	.	16b-/JJ	.	.
*	*	*v	*v	*
=16	=16	=16	=16
2c/	2F\	2f/ 2a	.
*v	*v	*	*
=17	=17	=17
*	*^	*
4C\ 4c	4g/	4e\	.
4C\ 4c	8f/L 8a	8ryy	.
.	8e/J 8g	8ryy	.
*	*v	*v	*
=18	=18	=18
4F\ 4c	4g/ 4b-	.
4F\ 4c	4f/ 4a	.
!!LO:LB:g=original
=19	=19	=19
4c\ 4e	4g/ 4b-	.
8c\ 8e	8a/ 8cc	.
8c\ 8e	8g/ 8b-	.
=20	=20	=20
*^	*^	*
8d/L	4F\	4dd/	4b-\	.
8e/J	.	.	.	.
4f/	4F\	4cc/	4a\	.
*v	*v	*	*	*
=21	=21	=21	=21
4B-\ 4f	4dd/	4b-\	.
8F\ 8f	8a/ 8cc	8ryy	.
8F\ 8f	8a/ 8cc	8ryy	.
=22	=22	=22	=22
*^	*	*	*
4d/	4F\	4b-/	4f\	.
4F\ 4c	4ryy	4a/	4f\	.
=23	=23	=23	=23	=23
8E\ 8c	8ryy	8e/ 8a	8ryy	.
8E\ 8c	8ryy	8e/ 8a	8ryy	.
8d/	8E\	8e/ 8bn	8ryy	.
16c/LL	8E\	16a/LL	8e\	.
16Bn/JJ	.	16g#X/JJ	.	.
*	*	*v	*v	*
=24	=24	=24	=24
2c/	2A\	2e/ 2a	.
*v	*v	*	*
=25	=25	=25
!	!LO:TX:a:i:t=Lento	!LO:DY:rj
4A\ 4c#X	4e/ 4a	f
8.A\ 8.c#	8.e/ 8.a	.
16A\ 16c#	16e/ 16a	.
=26	=26	=26
8.A\ 8.c#X	8.e/ 8.a	.
16A\ 16d	16f/ 16b-	.
4A\ 4d	4f/ 4b-	.
!!LO:LB:g=original
=27	=27	=27
8.A\ 8.d	8.f/ 8.b-	.
16A\ 16d	16f/ 16b-	.
8.A\ 8.d	8.f/ 8.b-	.
16A\ 16d	16f/ 16b-	.
=28	=28	=28
*^	*	*
8d/L	4A\	8f/L 8b-	.
8c#X/J	.	8e/J 8a	.
4c#;</	4AA\ 4A	4e;>/ 4a	.
*v	*v	*	*
=29	=29	=29
*	*^	*
!	!LO:TX:b:t=dolce	!	!
!	!LO:TX:a:t=Cantabile	!	!
4D\ 4d	4f#X/ 4a	4ryy	<
!	!	!LO:N:vis=4	!
8D\ 8d	8a/	8f#\	.
8D\ 8d	8f#/ 8a	8ryy	.
*	*v	*v	*
=30	=30	=30
4G\ 4d	4bn\ 4dd	.
8G\ 8d	8a/ 8cc#X	[
8G\ 8d	8g/ 8b	.
=31	=31	=31
4A\ 4c#X	4g/ 4bn	>
8A\ 8c#	8f#X/ 8a	.
8A\ 8c#	8e/ 8g	]]
=32	=32	=32
8.A\ 8.c#X	8.e/ 8.g	.
16D\ 16d	16d/ 16f#X	.
4D\ 4d	4d;>/ 4f#	.
=33	=33	=33
*^	*^	*
!	!	!	!	!LO:DY:rj
4D/	4D\	4d/	4d\	pp
4D/	4D\	4d/	4d\	.
=34	=34	=34	=34	=34
4D/	4D\	4d/	4d\	.
8D/	8D\	8d/	8d\	.
8D/	8D\	8d/	8d\	.
!!LO:LB:g=original
=35	=35	=35	=35	=35
4B-X/	4B-X\	4fn/	4d\	.
8.B-/	8.B-\	8.f/	8.d\	.
16B-/	16B-\	16f/	16d\	.
=36	=36	=36	=36	=36
4d/	4A\	4f/	4d\	.
8d/	8A\	8f/	8d\	.
8d/	8A\	8f/	8d\	.
*v	*v	*	*	*
*	*v	*v	*
=37	=37	=37
8G\ 8c#X	8en/ 8b-	.
8G\ 8c#	8e/ 8b-	.
8G\ 8c#	8e/ 8b-	.
8G\ 8c#	8e/ 8b-	.
=38	=38	=38
*^	*^	*
4d/	4F\	4a/	4d\	.
4B-/	4G\	4g/	4e\	.
*	*	*v	*v	*
=39	=39	=39	=39
4.A/	4.A\	4d/ 4f	.
.	.	8e/ 8g	.
8A/	8A\	8f/ 8a	.
=40	=40	=40	=40
4A/	4A\	4f/ 4a	.
4A/	4AA\	4c#X/ 4e	.
*v	*v	*	*
=41	=41	=41
4.D\ 4.B-	4.e/ 4.g	.
8D\ 8A	8d/ 8f	.
=42	=42	=42
4D\ 4A	4d/ 4f	.
!	!LO:TX:a:t=Organ	!
4D\ 4d	4f/ 4dd	.
!!LO:PB:g=original
=43	=43	=43
*	*^	*
*	*	*^	*
4B-\	2dd/	4g\	[<2f\	.
4Bn\	.	4g#X/	.	.
=44	=44	=44	=44	=44
[>2c\	2cc/	4a/	2f\]	.
.	.	4a-X/	.	.
=45	=45	=45	=45	=45
2C\ 2c]	4.cc/	2g/	4f\	.
.	.	.	4e\	.
.	8b-/	.	.	.
*	*	*v	*v	*
=46	=46	=46	=46
!	!LO:TX:a:i:t=Tempo primo\nChór	!	!LO:DY:rj
4F\ 4c	4a/	4f\	p
8F\ 8Bn	8f/ 8g#X	8ryy	.
8F\ 8c	8f/ 8a	8ryy	.
=47	=47	=47	=47
*^	*	*	*
4d/	4F\	4b-/	4f\	.
4F\ 4c	4ryy	4a/	4f\	.
=48	=48	=48	=48	=48
4A/	4F\	4cc/	4f\	.
8G#X/	8F\	8bn/	8f\	.
8F\ 8A	8ryy	8cc/	8f\	.
*v	*v	*	*	*
=49	=49	=49	=49
4F\ 4B-	4dd/	4f\	.
4F\ 4A	4cc/	4f\	.
*	*v	*v	*
=50	=50	=50
4F\ 4d	4f/ 4b-	.
8F\ 8e	8g/ 8cc	.
8F\ 8e	8g/ 8cc	.
=51	=51	=51
4F\ 4f	4a/ 4cc	.
4F\ 4c	4f/ 4a	.
!!LO:LB:g=original
=52	=52	=52
*^	*^	*
4Bn/	4G\	4g/	4f\	.
8c/L	4G\	8a/L	4f\	.
8d/J	.	8bn/J	.	.
*v	*v	*	*	*
*	*v	*v	*
=53	=53	=53
4C\ 4c	4e/ 4cc	.
4C\ 4c	4e/ 4b-X	.
=54	=54	=54
4F\ 4c	4f/ 4a	.
8F\ 8Bn	8f/ 8g#X	.
8F\ 8c	8f/ 8a	.
=55	=55	=55
8.F\ 8.d	8.f/ 8.b-	.
16F\ 16c	16f/ 16a	.
4F\ 4c	4f/ 4a	.
=56	=56	=56
*^	*^	*
4F\ 4A	4ryy	4cc/	4f\	.
8G#X/L	4F\	8bn/L	4f\	.
8A/J	.	8cc/J	.	.
*v	*v	*	*	*
=57	=57	=57	=57
4F\ 4B-	4dd/	4f\	.
4F\ 4A	4cc/	4f\	.
=58	=58	=58	=58
4D\ 4d	4f#X/ 4dd	4f#\	.
8D\ 8d	8f#/ 8cc	8f#\	.
8D\ 8d	8f#/ 8cc	8f#\	.
*	*v	*v	*
=59	=59	=59
8.G\ 8.e-X	8.f#X/ 8.cc	.
16G\ 16d	16g/ 16b-	.
8G\ 8d	8g/ 8b-	.
8A\ 8d	8fn/ 8a	.
=60	=60	=60
*^	*^	*
4B-\ 4d	4ryy	4.g/	4f\	.
4c/	4c\	.	4e\	.
.	.	16a/LL	.	.
.	.	16b-/JJ	.	.
*v	*v	*	*	*
*	*v	*v	*
=61	=61	=61
4F\ 4c	4f/ 4a	.
4r	4r	.
!!LO:LB:g=original
=62	=62	=62
*	*^	*
4.F\ 4.e-X	4.cc/	4.f\	.
8F\ 8e-	8f/ 8cc	8f\	.
*	*v	*v	*
=63	=63	=63
4F\ 4d	4f/ 4bn	.
4F\ 4d	4f/ 4b	.
=64	=64	=64
8F\ 8d-X	8f/ 8b-X	.
8F\ 8d-	8f/ 8b-	.
8F\ 8d-	8f/ 8b-	.
8F\ 8d-	8f/ 8b-	.
=65	=65	=65
4F\ 4d-X	4f/ 4b-	.
8F\ 8c	8f/ 8a	.
8F\ 8c	8f/ 8a	.
=66	=66	=66
*	*^	*
4B-\ 4d-X	4g/	4f\	.
8B-\ 8d-	8f/ 8g	8ryy	.
8B-\ 8d-	8f/ 8g	8ryy	.
=67	=67	=67	=67
!	!	!	!LO:HP:a
4B-\ 4d-X	4g/	4f\	<
4B-\ 4d-	4g/	4f\	.
*	*v	*v	*
=68	=68	=68
4.Bn\ 4.dn	4.f/ 4.a-X	.
8B\ 8d	8f/ 8a-	[
=69	=69	=69
2Bn\ 2d	2f/ 2a-X	.
=70	=70	=70
*^	*	*
2c/	2c\	4f/ 4an	.
.	.	8g/L 8b-	.
.	.	8f/J 8a	.
!!LO:LB:g=original
=71	=71	=71	=71
4C/ 4c	4C\	4e/ 4g	.
4C/ 4c	4C\	8a/L 8cc	.
.	.	8g/J 8b-	.
=72	=72	=72	=72
*	*	*^	*
4c/	2F\	2b-/	2g\	.
8d/L	.	.	.	.
8e/J	.	.	.	.
=73	=73	=73	=73	=73
!LO:TX:b:i:t=Ofertorium\nAve Maria na same głosy.	!	!	!	!
2f/	2F;<\	2a;>/	2f\	.
*v	*v	*	*	*
*	*v	*v	*
!!LO:LB:g=original
==	==	==
*-	*-	*-
!!!system-decoration: {(s1,s2)}
!!!RDF**kern: < = below
!!!RDF**kern: > = above
!!!ENC: Marta Chmielewska
!!!END: 2021-06-09
!!!ENC: Krzysztof Stępień
!!!END: 2021-05-26
